X:1
T:Title
%%score { ( 1 3 4 ) | ( 2 5 ) }
L:1/8
M:4/4
K:Eb
V:1 treble nm="Grand Piano"
V:3 treble 
V:4 treble 
V:2 bass 
V:5 bass 
V:1
 z4 z2[Q:1/4=100] EF | G2 G2 A2 GF | B4 G2 z G | [DG]2 [DF][DG] [DA]2 [DG]F |[M:3/4] E6 | %5
[M:1/4] E2 |[M:4/4] e2 e2 e2 dc | c4 B2 GG | F2 Bd d2 c2 |[M:7/8] [DB]-[DB]-[DB]- [DB]3 z | %10
[M:1/8] z |[M:4/4] [Ad]e[Ad]c z2 z A | [Gc]d[Gc]B z2 z G | [DF]2 [A,B,EG]2 [FA]FGA | [_Gc]4 z4 | %15
 [Ad]e[Ad]c [FA]2 [=EG]A | [Gc]d[Gc]B G2 FG | z4 z2 F2 | E6 z2 |] %19
V:2
 z4 z2 [E,G,B,][E,A,B,] | [E,B,E]2 [E,=B,E]2 [E,CE]2 [E,_B,E][E,A,D] | %2
 [E,G,E]4 [E,B,E]2 z [E,B,E] | [B,,B,]2 [B,,A,][B,,G,] [B,,F,]2 [B,,B,][B,,A,B,] | %4
[M:3/4] [E,G,B,]6 |[M:1/4] [E,G,]2 |[M:4/4] [F,A,E]2 [G,B,E]2 [A,CE]2 [A,B,E][A,E] | %7
 [E,A,E]4 [E,G,E]2 [E,B,E][E,B,E] | [F,B,D]2 [F,DF][F,B,F] [F,=A,F]2 [F,E]2 | %9
[M:7/8] [B,,F,]-[B,,F,]-[B,,F,]- [B,,F,]3 z |[M:1/8][K:treble] B | %11
[M:4/4][K:bass] z A z A B,,2 z F | z[K:treble] G z G[K:bass] E,,2 z E | B,,2 F,2 z DEF | %14
 E,,2 E,2 E,2 z G | z[K:treble] A z A[K:bass] B,,2 z F | %16
 z G z[K:treble] G [E,G,B,E]2 [A,C][G,C=E] | [F,CF]3[K:bass] [F,CF] [B,E]2 z A, | [E,G,B,]6 z2 |] %19
V:3
 x8 | x8 | x8 | x8 |[M:3/4] x6 |[M:1/4] x2 |[M:4/4] x8 | x8 | x8 |[M:7/8] x7 |[M:1/8] x | %11
[M:4/4] z4 [FA]4 | z4 [EG]4 | x8 | z2 =A,2 [B,=GB]2 [GB]c | x8 | x8 | A3 A G2 [B,D]B, | x8 |] %19
V:4
 x8 | x8 | x8 | x8 |[M:3/4] x6 |[M:1/4] x2 |[M:4/4] x8 | x8 | x8 |[M:7/8] x7 |[M:1/8] x | %11
[M:4/4] z4 z2 [A,B,]2 | z4 z2 [G,B,]2 | x8 | x8 | x8 | x8 | x8 | x8 |] %19
V:5
 x8 | x8 | x8 | x8 |[M:3/4] x6 |[M:1/4] x2 |[M:4/4] x8 | x8 | x8 |[M:7/8] x7 |[M:1/8][K:treble] x | %11
[M:4/4][K:bass] F,,2 [F,A,B,]2 z2 F,2 | E,,2[K:treble] [E,G,B,]2[K:bass] z2 E,2 | %13
 z4 B,,2 [F,A,B,]2 | z4 z2 B,,2 | F,,2[K:treble] [F,A,B,]2[K:bass] z2 [F,A,B,]2 | %16
 E,,2 [E,G,B,]2[K:treble] z4 | z4[K:bass] z2 B,,2 | x8 |] %19

